X:9
%%pagewidth 800pt
%%score 1 2
T: Western Wind, when wilt thou blow?
M:C
L:1/4
K:F
V:1 clef=treble
V:2 clef=bass
V:1
G>A B[DB]&B,3x|(A/>B/)(A/G/) !fermata!F [A,D]&D x3|[DG]>D F [EG]|!fermata!F3 [B,DB]|
w:Westron* wynde when wyll* thou* blow? The smalle rain downe `doth' rayne; `Oh!'
V:2
[G,,D,]3 [G,,G,]|[D,F,]3 [D,F,]|[B,,G,]2 [D,A,] [C,C]|!fermata![F,A,]3 G,,|
V:1
[DFA]>G [A,F][B,D]|[A,DF][CEG][A,F][B,DB]|[DFA]G/G/!fermata![DAd]>[DBd]&x G x2|A//G//F//G// A//B//A/ [B,G]2&[DFA]2x2|
w:if my love were in my armys, `Or' I in my bed a-gayne.*******
V:2
D,2 D, B,,|D,C,F,G,,|D,B,,!fermata!F,,>F,,|D,2G,2|

